Gruvbox-Plus-Dark/actions/16/go-parent-folder.svg

<svg xmlns="http://www.w3.org/2000/svg" width="16" height="16" viewBox="0 0 16 16">
 <defs>
  <style id="current-color-scheme" type="text/css">
   .ColorScheme-Text { color:#ebdbb2; } .ColorScheme-Highlight { color:#458588; }
  </style>
 </defs>
 <path style="fill:currentColor" class="ColorScheme-Text" d="M 1.84375 1.0097656 C 1.56245 1.0565656 1 1.2597656 1 2.0097656 L 1 13.009766 C 1 13.009766 1 14.009766 2 14.009766 L 10.671875 14.009766 L 10.671875 12.328125 C 10.273875 12.644125 9.70285 12.610953 9.34375 12.251953 L 8.6367188 11.544922 C 8.2464188 11.153922 8.2464188 10.520859 8.6367188 10.130859 L 9.5859375 9.1816406 L 11.464844 7.3027344 C 11.648844 7.1185344 11.898203 7.0133656 12.158203 7.0097656 C 12.428203 7.0061656 12.687906 7.1118344 12.878906 7.3027344 L 14.757812 9.1816406 L 15 9.4238281 L 15 4.0097656 C 15 3.0097656 14 3.0097656 14 3.0097656 L 9 3.0097656 L 7 1.0097656 L 2 1.0097656 C 2 1.0097656 1.93745 0.99413563 1.84375 1.0097656 z M 12.171875 8.0097656 L 10.292969 9.8886719 L 9.34375 10.837891 L 10.050781 11.544922 L 11 10.595703 L 11.671875 9.9238281 L 11.671875 14.009766 L 12.671875 14.009766 L 12.671875 9.9238281 L 13.34375 10.595703 L 14.292969 11.544922 L 15 10.837891 L 14.050781 9.8886719 L 12.171875 8.0097656 z"/>
</svg>

<svg width="16" height="16" version="1.1" viewBox="0 0 16 16" xmlns="http://www.w3.org/2000/svg">
  <defs>
    <style type="text/css">.ColorScheme-Text { color:#ebdbb2; } .ColorScheme-Highlight { color:#458588; }</style>
  </defs>
  <path class="ColorScheme-Text" d="m1 13.01s0 1 1 1h8.672v-1.682c-0.398 0.316-0.969 0.2828-1.328-0.07617l-0.707-0.707c-0.3903-0.391-0.3903-1.024 0-1.414l2.828-2.828c0.184-0.1842 0.4334-0.2894 0.6934-0.293 0.27-0.0036 0.5297 0.1021 0.7207 0.293l2.121 2.121v-5.414c0-1-1-1.01-1-1.01h-5l-2-2h-5s-1 0.00565-1 1zm11.17-5-2.828 2.828 0.707 0.707 1.621-1.621v4.086h1v-4.086l1.621 1.621 0.707-0.707z" fill="currentColor"/>
</svg>
